; generated by PrusaSlicer 2.8.1+MacOS-arm64 on 2025-02-24 at 16:56:48 UTC

; 

; external perimeters extrusion width = 0.42mm
; perimeters extrusion width = 0.44mm
; infill extrusion width = 0.44mm
; solid infill extrusion width = 0.44mm
; top infill extrusion width = 0.40mm
; support material extrusion width = 0.36mm
; first layer extrusion width = 0.42mm

M201 X500 Y500 Z100 E5000 ; sets maximum accelerations, mm/sec^2
M203 X500 Y500 Z10 E60 ; sets maximum feedrates, mm / sec
M204 S500 T1000 ; sets acceleration (S) and retract acceleration (R), mm/sec^2
M205 X8.00 Y8.00 Z0.40 E5.00 ; sets the jerk limits, mm/sec
M205 S0 T0 ; sets the minimum extruding and travel feed rate, mm/sec

; printing object Battery Holder Giacomo Cappelletto.stl id:0 copy 0
; stop printing object Battery Holder Giacomo Cappelletto.stl id:0 copy 0

;TYPE:Custom
G90 ; use absolute coordinates
M83 ; extruder relative mode
M104 S150 ; set temporary nozzle temp to prevent oozing during homing
M140 S60 ; set final bed temp
G4 S30 ; allow partial nozzle warmup
G28 ; home all axis
G1 Z50 F240
G1 X2.0 Y10 F3000
M104 S205 ; set final nozzle temp
M190 S60 ; wait for bed temp to stabilize
M109 S205 ; wait for nozzle temp to stabilize
G1 Z0.28 F240
G92 E0
G1 X2.0 Y140 E10 F1500 ; prime the nozzle
G1 X2.3 Y140 F5000
G92 E0
G1 X2.3 Y10 E10 F1200 ; prime the nozzle
G92 E0
G21 ; set units to millimeters
G90 ; use absolute coordinates
M83 ; use relative distances for extrusion
; Filament gcode
M107
;LAYER_CHANGE
;Z:0.2
;HEIGHT:0.2
G1 E-5 F3600
G1 Z.2 F9000
G1 X94.451 Y97.053
G1 Z.2
G1 E5 F2400
M204 S500
;TYPE:Skirt/Brim
;WIDTH:0.42
G1 F1200
G1 X94.733 Y96.802 E.01184
G1 X98.651 Y94.523 E.14212
G1 X99.126 Y94.395 E.01542
G1 X120.9 Y94.411 E.68271
G1 X121.379 Y94.542 E.01557
G1 X125.249 Y96.829 E.14095
G1 X125.519 Y97.069 E.01133
G1 X127.721 Y99.955 E.11382
G1 X128.428 Y101.546 E.05459
G1 X128.503 Y101.931 E.0123
G1 X128.175 Y119.782 E.5598
G1 X128.073 Y120.473 E.0219
G1 X127.77 Y121.347 E.029
G1 X127.418 Y121.96 E.02216
G1 X126.977 Y122.5 E.02186
G1 X126.285 Y123.087 E.02845
G1 X125.626 Y123.452 E.02362
G1 X124.866 Y123.712 E.02519
G1 X123.921 Y123.832 E.02987
G1 X97.51 Y123.874 E.8281
G1 X94.253 Y123.777 E.10217
G1 X93.493 Y123.351 E.02732
G1 X92.233 Y121.353 E.07406
G1 X91.99 Y120.714 E.02144
G1 X91.831 Y119.855 E.02739
G1 X91.51 Y101.968 E.56092
G1 X91.577 Y101.603 E.01164
G1 X92.25 Y100.001 E.05448
G1 X94.416 Y97.101 E.11349
G1 X94.416 Y97.101 F9000
G1 X94.718 Y97.326
G1 F1200
G1 X94.754 Y97.278 E.00188
G1 X98.841 Y94.849 E.14907
G1 X99.125 Y94.773 E.00922
G1 X120.9 Y94.788 E.68274
G1 X121.188 Y94.866 E.00936
G1 X125.219 Y97.298 E.14761
G1 X127.421 Y100.184 E.11382
G1 X128.081 Y101.693 E.05164
G1 X127.798 Y119.768 E.5668
G1 X127.647 Y120.612 E.02688
G1 X127.425 Y121.195 E.01956
G1 X127.102 Y121.753 E.02022
G1 X126.699 Y122.245 E.01994
G1 X126.062 Y122.783 E.02614
G1 X125.479 Y123.105 E.02088
G1 X124.784 Y123.344 E.02304
G1 X123.909 Y123.455 E.02765
G1 X97.539 Y123.498 E.82681
G1 X94.265 Y123.4 E.1027
G1 X93.808 Y123.145 E.01641
G1 X92.578 Y121.201 E.07213
G1 X92.355 Y120.619 E.01954
G1 X92.206 Y119.813 E.0257
G1 X91.887 Y101.961 E.55983
G1 X92.552 Y100.227 E.05823
G1 X94.682 Y97.374 E.11163
G1 X94.682 Y97.374 F9000
G1 X94.984 Y97.6
G1 F1200
G1 X95.056 Y97.504 E.00376
G1 X99.125 Y95.15 E.14739
G1 X120.9 Y95.165 E.68274
G1 X124.919 Y97.526 E.14615
G1 X127.122 Y100.413 E.11386
G1 X127.734 Y101.841 E.04871
G1 X127.421 Y119.755 E.56177
G1 X127.282 Y120.517 E.02429
G1 X127.08 Y121.044 E.0177
G1 X126.42 Y121.991 E.03619
G1 X125.839 Y122.479 E.02379
G1 X125.332 Y122.758 E.01814
G1 X124.702 Y122.976 E.0209
G1 X123.898 Y123.078 E.02541
G1 X97.538 Y123.121 E.8265
G1 X94.276 Y123.023 E.10232
G1 X94.124 Y122.938 E.00546
G1 X92.929 Y121.061 E.06977
G1 X92.719 Y120.523 E.01811
G1 X92.58 Y119.771 E.02398
G1 X92.264 Y101.955 E.5587
G1 X92.854 Y100.453 E.0506
G1 X94.948 Y97.648 E.10975
; printing object Battery Holder Giacomo Cappelletto.stl id:0 copy 0
G1 X98.771 Y100.415 F9000
;TYPE:Support material
G1 F1200
G1 X97.128 Y100.415 E.05152
G1 X96.736 Y100.497 E.01256
G1 X96.251 Y100.891 E.01959
G1 X96.11 Y101.187 E.01028
G1 X96.061 Y101.542 E.01124
G1 X95.935 Y101.516 E.00403
G1 X95.94 Y101.379 E.0043
G1 X95.61 Y101.296 E.01067
G1 X95.206 Y101.929 E.02355
G1 X95.512 Y102.244 E.01377
G1 X96.278 Y102.244 E.02402
G1 X96.571 Y101.962 E.01275
G1 X98.895 Y101.963 E.07287
G1 X99.188 Y102.025 E.00939
G1 X99.191 Y104.591 E.08046
G1 X99.393 Y105.257 E.02182
G1 X99.617 Y105.398 E.0083
G1 X102.172 Y105.398 E.08011
G1 X100.753 Y107.666 E.08388
G1 X99.94 Y107.798 E.02582
G1 X99.94 Y115.801 E.25093
G1 X100.959 Y116.297 E.03553
G1 X101.808 Y117.378 E.0431
G1 X102.302 Y118.563 E.04025
G1 X102.446 Y119.628 E.0337
G1 X102.381 Y120.418 E.02485
G1 X102.095 Y121.151 E.02467
G1 X100.882 Y122.89 E.06648
G1 X97.538 Y122.932 E.10486
G1 X94.282 Y122.835 E.10213
G1 X93.095 Y120.973 E.06924
G1 X92.902 Y120.476 E.01672
G1 X92.768 Y119.75 E.02315
G1 X92.76 Y102.804 E.53133
G1 X92.452 Y101.952 E.02841
G1 X93.005 Y100.565 E.04682
G1 X95.207 Y97.617 E.11537
G1 X95.956 Y98.39 E.03375
G1 X99.125 Y95.338 E.13795
G1 X98.775 Y100.358 E.15778
G1 X98.775 Y100.358 F9000
G1 X96.997 Y99.934
G1 F1200
G1 X97.319 Y99.825 E.01066
G1 X97.777 Y99.931 E.01474
G1 X97.722 Y100.286 E.01126
G1 X97.055 Y100.286 E.02091
G1 X97.006 Y99.99 E.00941
G1 E-3.5 F3600
;WIPE_START
G1 F7200
G1 X97.055 Y100.286 E-.14251
G1 X97.722 Y100.286 E-.31683
G1 X97.777 Y99.931 E-.17064
G1 X97.319 Y99.825 E-.2233
G1 X96.997 Y99.934 E-.16148
;WIPE_END
G1 E-.48524 F3600
G1 X102.039 Y120.783 F9000
G1 E5 F2400
G1 F1200
G1 X102.039 Y119.065 E.05387
G1 X101.972 Y118.649 E.01321
G1 X101.62 Y117.768 E.02975
G1 X101.62 Y121.261 E.10952
G1 X101.201 Y121.863 E.023
G1 X101.201 Y117.098 E.1494
G1 X100.783 Y116.611 E.02012
G1 X100.783 Y122.446 E.18295
G1 X100.707 Y122.551 E.00406
G1 X100.364 Y122.551 E.01075
G1 X100.364 Y116.384 E.19336
G1 X99.945 Y116.181 E.0146
G1 X99.945 Y122.551 E.19973
G1 X99.526 Y122.551 E.01314
G1 X99.526 Y105.737 E.52719
G1 X99.945 Y105.737 E.01314
G1 X99.945 Y107.454 E.05384
G1 X100.364 Y107.386 E.01331
G1 X100.364 Y105.737 E.0517
G1 X100.783 Y105.737 E.01314
G1 X100.783 Y106.979 E.03894
G1 X101.201 Y106.309 E.02476
G1 X101.201 Y105.567 E.02326
G1 E-3.5 F3600
;WIPE_START
G1 F7200
G1 X101.201 Y106.309 E-.35245
G1 X100.783 Y106.979 E-.37511
G1 X100.783 Y105.737 E-.58995
G1 X100.398 Y105.737 E-.18249
;WIPE_END
G1 X99.107 Y122.72 F9000
G1 E5 F2400
G1 F1200
G1 X99.107 Y105.445 E.54165
G1 X98.855 Y104.652 E.02609
G1 X98.849 Y102.301 E.07371
G1 X98.688 Y102.301 E.00505
G1 X98.688 Y122.55 E.63489
G1 X98.269 Y122.55 E.01314
G1 X98.269 Y102.301 E.63489
G1 X97.85 Y102.301 E.01314
G1 X97.85 Y122.55 E.63489
G1 X97.431 Y122.589 E.01319
G1 X97.431 Y102.301 E.63612
G1 X97.012 Y102.301 E.01314
G1 X97.012 Y122.577 E.63574
G1 X96.593 Y122.564 E.01314
G1 X96.593 Y102.412 E.63185
G1 X96.415 Y102.584 E.00776
G1 X96.174 Y102.584 E.00756
G1 X96.174 Y122.552 E.62608
G1 X95.755 Y122.54 E.01314
G1 X95.755 Y102.584 E.62571
G1 X95.336 Y102.55 E.01318
G1 X95.336 Y122.527 E.62636
G1 X94.917 Y122.514 E.01314
G1 X94.917 Y98.572 E.75068
G1 X95.24 Y98.139 E.01694
G1 X95.336 Y98.238 E.00432
G1 X95.336 Y101.084 E.08923
G1 X95.426 Y100.9 E.00642
G1 X95.755 Y100.982 E.01063
G1 X95.755 Y98.67 E.07249
G1 X95.947 Y98.869 E.00867
G1 X96.174 Y98.651 E.00987
G1 X96.174 Y100.463 E.05681
G1 X96.593 Y100.189 E.0157
G1 X96.593 Y98.248 E.06086
G1 X97.012 Y97.844 E.01825
G1 X97.012 Y99.571 E.05415
G1 X97.431 Y99.499 E.01333
G1 X97.431 Y97.441 E.06453
G1 X97.85 Y97.037 E.01825
G1 X97.85 Y99.598 E.0803
G1 X98.158 Y99.696 E.01013
G1 X98.098 Y100.075 E.01203
G1 X98.269 Y100.075 E.00536
G1 X98.269 Y96.634 E.10789
G1 X98.688 Y96.23 E.01825
G1 X98.688 Y99.168 E.09212
G1 E-3.5 F3600
;WIPE_START
G1 F7200
G1 X98.688 Y96.23 E-1.39555
G1 X98.53 Y96.383 E-.10445
;WIPE_END
G1 X94.498 Y122.672 F9000
G1 E5 F2400
G1 F1200
G1 X94.498 Y99.133 E.73805
G1 X94.079 Y99.694 E.02195
G1 X94.079 Y121.905 E.69641
G1 X93.66 Y121.265 E.02398
G1 X93.66 Y100.256 E.65872
G1 X93.241 Y100.902 E.02414
G1 X93.241 Y120.419 E.61194
G1 X93.1 Y119.544 E.02779
G1 X93.099 Y102.744 E.52675
G1 X92.822 Y101.976 E.0256
G1 X92.822 Y101.494 E.01511
G1 E-3.5 F3600
;WIPE_START
G1 F7200
G1 X92.822 Y101.976 E-.22895
G1 X93.099 Y102.744 E-.3878
G1 X93.099 Y104.604 E-.88325
;WIPE_END
G1 X124.046 Y98.388 F9000
G1 E5 F2400
G1 F1200
G1 X124.769 Y97.641 E.0326
G1 X126.972 Y100.527 E.11384
G1 X127.561 Y101.914 E.04725
G1 X127.24 Y102.803 E.02964
G1 X127.24 Y119.551 E.52512
G1 X127.161 Y120.236 E.02162
G1 X126.798 Y121.176 E.03159
G1 X126.281 Y121.864 E.02698
G1 X125.727 Y122.327 E.02264
G1 X124.855 Y122.74 E.03025
G1 X123.892 Y122.89 E.03056
G1 X119.119 Y122.89 E.14965
G1 X117.968 Y121.253 E.06274
G1 X117.655 Y120.598 E.02276
G1 X117.555 Y119.721 E.02768
G1 X117.702 Y118.551 E.03697
G1 X118.194 Y117.376 E.03994
G1 X119.039 Y116.298 E.04295
G1 X120.06 Y115.801 E.0356
G1 X120.06 Y107.715 E.25353
G1 X119.451 Y107.396 E.02156
G1 X118.836 Y106.882 E.02513
G1 X117.819 Y105.398 E.05641
G1 X120.383 Y105.398 E.08039
G1 X120.607 Y105.257 E.0083
G1 X120.809 Y104.591 E.02182
G1 X120.812 Y102.025 E.08046
G1 X121.104 Y101.963 E.00936
G1 X123.429 Y101.962 E.0729
G1 X123.722 Y102.244 E.01275
G1 X124.488 Y102.244 E.02402
G1 X124.795 Y101.927 E.01384
G1 X124.535 Y101.586 E.01345
G1 X124.405 Y101.255 E.01115
G1 X124.058 Y101.328 E.01112
G1 X124.065 Y101.516 E.0059
G1 X123.939 Y101.542 E.00403
G1 X123.762 Y100.91 E.02058
G1 X123.28 Y100.503 E.01978
G1 X122.873 Y100.415 E.01306
G1 X121.234 Y100.414 E.05139
G1 X120.9 Y95.353 E.15903
G1 X124.005 Y98.349 E.13529
G1 X124.005 Y98.349 F9000
G1 X121.866 Y99.9
G1 F1200
G1 X122.464 Y99.799 E.01902
G1 X122.902 Y99.923 E.01427
G1 X122.852 Y100.286 E.01149
G1 X121.899 Y100.286 E.02988
G1 X121.871 Y99.957 E.01035
G1 E-3.5 F3600
;WIPE_START
G1 F7200
G1 X121.899 Y100.286 E-.15684
G1 X122.852 Y100.286 E-.45268
G1 X122.902 Y99.923 E-.17405
G1 X122.464 Y99.799 E-.21623
G1 X121.866 Y99.9 E-.28807
;WIPE_END
G1 E-.21213 F3600
G1 X127.178 Y102.475 F9000
G1 E5 F2400
G1 F1200
G1 X127.178 Y101.886 E.01847
G1 X126.759 Y100.912 E.03324
G1 X126.759 Y120.418 E.6116
G1 X126.34 Y121.263 E.02957
G1 X126.34 Y100.259 E.65857
G1 X125.921 Y99.71 E.02165
G1 X125.921 Y121.739 E.6907
G1 X125.502 Y122.066 E.01666
G1 X125.502 Y99.161 E.71817
G1 X125.083 Y98.611 E.02168
G1 X125.083 Y122.29 E.74244
G1 X124.953 Y122.345 E.00443
G1 X124.664 Y122.44 E.00954
G1 X124.664 Y102.55 E.62364
G1 X124.245 Y102.584 E.01318
G1 X124.245 Y122.525 E.62524
G1 X123.826 Y122.55 E.01316
G1 X123.826 Y102.584 E.62602
G1 X123.584 Y102.584 E.00759
G1 X123.407 Y102.413 E.00772
G1 X123.407 Y122.55 E.63138
G1 X122.988 Y122.55 E.01314
G1 X122.988 Y102.301 E.63489
G1 X122.569 Y102.301 E.01314
G1 X122.569 Y122.55 E.63489
G1 X122.15 Y122.551 E.01314
G1 X122.15 Y102.301 E.63492
G1 X121.731 Y102.301 E.01314
G1 X121.731 Y122.551 E.63492
G1 X121.312 Y122.551 E.01314
G1 X121.312 Y102.301 E.63492
G1 X121.151 Y102.301 E.00505
G1 X121.145 Y104.652 E.07371
G1 X120.893 Y105.445 E.02609
G1 X120.893 Y122.551 E.53635
G1 X120.474 Y122.551 E.01314
G1 X120.474 Y105.737 E.52719
G1 X120.055 Y105.737 E.01314
G1 X120.055 Y107.342 E.05032
G1 X119.636 Y107.112 E.01499
G1 X119.636 Y105.737 E.04311
G1 X119.217 Y105.737 E.01314
G1 X119.217 Y106.781 E.03273
G1 X118.799 Y106.301 E.01996
G1 X118.799 Y105.567 E.02301
G1 E-3.5 F3600
;WIPE_START
G1 F7200
G1 X118.799 Y106.301 E-.34865
G1 X119.217 Y106.781 E-.30233
G1 X119.217 Y105.737 E-.4959
G1 X119.636 Y105.737 E-.19902
G1 X119.636 Y106.061 E-.1541
;WIPE_END
G1 X124.664 Y101.451 F9000
G1 E5 F2400
G1 F1200
G1 X124.664 Y98.237 E.10077
G1 X124.245 Y98.67 E.01889
G1 X124.245 Y100.942 E.07124
G1 X124.167 Y100.958 E.0025
G1 X123.826 Y100.463 E.01885
G1 X123.826 Y98.648 E.05691
G1 X123.407 Y98.244 E.01825
G1 X123.407 Y100.188 E.06095
G1 X123.217 Y100.123 E.0063
G1 X123.279 Y99.676 E.01415
G1 X122.988 Y99.595 E.00947
G1 X122.988 Y97.84 E.05503
G1 X122.569 Y97.436 E.01825
G1 X122.569 Y99.476 E.06396
G1 X122.15 Y99.508 E.01318
G1 X122.15 Y97.031 E.07766
G1 X121.731 Y96.627 E.01825
G1 X121.731 Y99.579 E.09256
G1 X121.521 Y99.614 E.00668
G1 X121.312 Y95.987 E.11391
G1 E-3.5 F3600
;WIPE_START
G1 F7200
G1 X121.494 Y99.14 E-1.5
;WIPE_END
G1 X120.055 Y122.72 F9000
G1 E5 F2400
G1 F1200
G1 X120.055 Y116.18 E.20506
G1 X119.636 Y116.384 E.01461
G1 X119.636 Y122.551 E.19336
G1 X119.293 Y122.551 E.01075
G1 X119.217 Y122.445 E.00409
G1 X119.217 Y116.611 E.18292
G1 X118.799 Y117.098 E.02012
G1 X118.799 Y121.862 E.14937
G1 X118.38 Y121.262 E.02295
G1 X118.38 Y117.772 E.10943
G1 X118.032 Y118.637 E.02923
G1 X117.961 Y119.065 E.0136
G1 X117.961 Y120.823 E.05512
G1 E-3.5 F3600
;WIPE_START
G1 F7200
G1 X117.961 Y119.065 E-.83505
G1 X118.032 Y118.637 E-.20608
G1 X118.38 Y117.772 E-.44288
G1 X118.38 Y117.806 E-.01599
;WIPE_END
G1 X120.985 Y101.192 F9000
G1 E5 F2400
;TYPE:External perimeter
;WIDTH:0.631434
G1 F1200
G1 X121.035 Y101.19 E.00245
;WIDTH:0.627008
G1 X122.841 Y101.189 E.08771
G1 E-3.5 F3600
;WIPE_START
G1 F7200
G1 X120.985 Y101.192 E-.8816
G1 X121.035 Y101.19 E-.02377
G1 X122.287 Y101.189 E-.59463
;WIPE_END
G1 X97.181 Y101.189 F9000
G1 E5 F2400
;WIDTH:0.62699
G1 F1200
G1 X98.962 Y101.19 E.0865
;WIDTH:0.631964
G1 X99.016 Y101.193 E.00265
G1 X99.016 Y101.193 F9000
G1 X100.665 Y101.933
;TYPE:Perimeter
;WIDTH:0.419999
G1 F1200
G1 X118.674 Y101.94 E.56466
G1 X119.336 Y101.925 E.02076
G1 X119.289 Y102.659 E.02306
G1 X119.287 Y103.871 E.038
G1 X100.713 Y103.871 E.58237
G1 X100.709 Y102.601 E.03982
G1 X100.669 Y101.992 E.01914
G1 X100.669 Y101.992 F9000
G1 X100.156 Y101.518
G1 F1200
G1 X100.573 Y101.555 E.01313
G1 X102.043 Y101.564 E.04609
G1 X118.896 Y101.563 E.52841
G1 X119.776 Y101.532 E.02761
G1 X119.73 Y101.671 E.00459
G1 X119.666 Y102.66 E.03107
G1 X119.663 Y104.248 E.04979
G1 X100.337 Y104.248 E.60595
G1 X100.332 Y102.625 E.05089
G1 X100.27 Y101.673 E.02991
G1 X100.192 Y101.567 E.00413
G1 X100.192 Y101.567 F9000
G1 X99.825 Y101.603
;TYPE:External perimeter
G1 F1200
G1 X99.773 Y101.533 E.00273
G1 X99.515 Y101.435 E.00865
;WIDTH:0.462392
G1 X99.415 Y101.386 E.00388
;WIDTH:0.504785
G1 X99.315 Y101.338 E.00426
;WIDTH:0.547178
G1 X99.215 Y101.289 E.00467
;WIDTH:0.589571
G1 X99.116 Y101.241 E.005
;WIDTH:0.631964
G1 X99.016 Y101.193 E.00543
G1 X99.105 Y101.169 E.00451
;WIDTH:0.584616
G1 X99.193 Y101.145 E.00411
;WIDTH:0.537267
G1 X99.282 Y101.122 E.00378
;WIDTH:0.489919
G1 X99.371 Y101.098 E.00343
;WIDTH:0.44257
G1 X99.871 Y101.113 E.01662
;WIDTH:0.419999
G1 X100.575 Y101.178 E.02217
G1 X102.045 Y101.186 E.04609
G1 X118.883 Y101.186 E.52794
G1 X119.589 Y101.162 E.02215
G1 X120.123 Y101.12 E.01679
;WIDTH:0.43646
G1 X120.618 Y101.095 E.01622
;WIDTH:0.485204
G1 X120.71 Y101.119 E.0035
;WIDTH:0.533947
G1 X120.801 Y101.144 E.00385
;WIDTH:0.582691
G1 X120.893 Y101.168 E.00427
;WIDTH:0.631434
G1 X120.985 Y101.192 E.00465
G1 X120.905 Y101.233 E.0044
;WIDTH:0.582691
G1 X120.825 Y101.274 E.00403
;WIDTH:0.533947
G1 X120.746 Y101.315 E.00363
;WIDTH:0.485204
G1 X120.666 Y101.356 E.00331
;WIDTH:0.43646
G1 X120.147 Y101.591 E.01864
;WIDTH:0.419999
G1 X120.107 Y101.696 E.00352
G1 X120.044 Y102.661 E.03032
G1 X120.039 Y104.505 E.05782
G1 X120.016 Y104.626 E.00386
G1 X99.984 Y104.626 E.62809
G1 X99.961 Y104.518 E.00346
G1 X99.956 Y102.65 E.05857
G1 X99.894 Y101.697 E.02994
G1 X99.86 Y101.652 E.00177
G1 E-3.5 F3600
;WIPE_START
G1 F7200
G1 X99.825 Y101.603 E-.0286
G1 X99.773 Y101.533 E-.04142
G1 X99.515 Y101.435 E-.13109
G1 X99.415 Y101.386 E-.0529
G1 X99.315 Y101.338 E-.05269
G1 X99.215 Y101.289 E-.0529
G1 X99.116 Y101.241 E-.05226
G1 X99.016 Y101.193 E-.05269
G1 X99.105 Y101.169 E-.04379
G1 X99.193 Y101.145 E-.04333
G1 X99.282 Y101.122 E-.04366
G1 X99.371 Y101.098 E-.04379
G1 X99.871 Y101.113 E-.23761
G1 X100.575 Y101.178 E-.33582
G1 X101.18 Y101.181 E-.28745
;WIPE_END
G1 X118.429 Y102.053 F9000
G1 E5 F2400
;TYPE:Solid infill
;WIDTH:0.427956
G1 F1200
G1 X119.001 Y102.625 E.0259
G1 X118.998 Y103.166 E.01732
G1 X118.054 Y102.222 E.04274
G1 X117.509 Y102.222 E.01745
G1 X118.868 Y103.581 E.06153
